X: 5
T: Condon's Frolics
R: jig
M: 6/8
L: 1/8
K: Ador
eAB c2d | edc BAG | eAB c2d | eaa eaa | eAB c2d | edc BAG | ABA gfe | dcB A2 :|eaa efg | dec BAG | eaa efg | fed efg | eaa efg | dec BAG | ABA gfe | dcB A2 :|


Tune 1244	Setting 27633

